images_elementary_svg/cmd/32/insertfixedtext.svg

<svg height="32" width="32" xmlns="http://www.w3.org/2000/svg" xmlns:xlink="http://www.w3.org/1999/xlink"><radialGradient id="a" cx="-4.503214" cy="6.142933" gradientTransform="matrix(.15637421 3.2168892 -2.4630764 .11177097 11.331486 18.121174)" gradientUnits="userSpaceOnUse" r="4.719" xlink:href="#c"/><radialGradient id="b" cx="-15.353959" cy="4.658481" gradientTransform="matrix(.13451573 2.4473345 -2.2206636 .11394217 -2.943691 41.443873)" gradientUnits="userSpaceOnUse" r="6.037485" xlink:href="#c"/><linearGradient id="c"><stop offset="0" stop-color="#737373"/><stop offset=".262" stop-color="#636363"/><stop offset=".705" stop-color="#4b4b4b"/><stop offset="1" stop-color="#3f3f3f"/></linearGradient><linearGradient id="d" gradientUnits="userSpaceOnUse" x1="-15.081" x2="-19.514" y1="11.726" y2="6.405"><stop offset="0" stop-color="#1f1f1f"/><stop offset="1" stop-color="#5c5c5c"/></linearGradient><g style="stroke:#000;stroke-linecap:round;stroke-linejoin:round;stroke-opacity:.49;stroke-width:.75;fill:url(#d)" transform="matrix(1.3105967 0 0 1.3564633 30.15902 -.50563)"><path d="m-12.265 17.678-.85-2.79h-4.272l-.85 2.79h-2.676l4.135-11.765h3.038l4.152 11.765zm-1.443-4.873q-1.178-3.79-1.33-4.288-.145-.497-.21-.785-.263 1.026-1.514 5.073z" fill="url(#b)"/><path d="m-8.122 5.96h3.647q2.493 0 3.615.714 1.13.706 1.13 2.252 0 1.05-.497 1.723-.49.673-1.307.81v.08q1.114.247 1.603.93.496.68.496 1.81 0 1.603-1.162 2.5-1.154.898-3.142.898h-4.384v-11.717zm2.485 4.64h1.443q1.01 0 1.458-.31.457-.314.457-1.035 0-.674-.496-.962-.49-.297-1.555-.297h-1.307zm0 1.973v3.053h1.62q1.025 0 1.514-.392.49-.393.49-1.203 0-1.457-2.085-1.457z" fill="url(#a)"/></g><path d="m8.1699219 7.515625-5.4199219 15.958984h.5097656l4.9101563-14.458984h3.9824221l4.929687 14.458984h.511719l-5.441406-15.958984zm11.3437501.0625v1.5h4.78125c2.178211 0 3.756001.3230735 4.736328.96875.812071.525121 1.271528 1.322332 1.416016 2.361328.039579-.255328.066406-.520425.066406-.806641 0-1.398061-.495106-2.4162449-1.482422-3.054687-.980327-.6456765-2.558117-.96875-4.736328-.96875zm7.521484 5.263672c-.09963.254268-.251091.46071-.46289.611328-.391432.280336-1.027688.419922-1.910157.419922h-1.890625v1.5h1.890625c.882469 0 1.518725-.139586 1.910157-.419922.399295-.283953.599609-.75229.599609-1.404297 0-.27249-.050027-.504359-.136719-.707031zm2.550782 2.921875c-.388767.411039-.864855.674052-1.4375.773437v.109375c.973336.223364 1.674307.644076 2.101562 1.261719.316271.448771.514054 1.008358.599609 1.673828.030252-.231087.050782-.468629.050782-.71875 0-1.021868-.21702-1.840148-.650391-2.455078-.172805-.249809-.401796-.459179-.664062-.644531zm-20.9531255 1.099609c-.1592346.53758-.2578271.885336-.4414063 1.5h4.0019528c-.265431-.883866-.243495-.814132-.449218-1.5zm18.7714845 2.462891c-.10373.340091-.273107.622608-.525391.832031-.427254.354489-1.0888.533203-1.984375.533203h-2.123047v1.5h2.123047c.895575 0 1.557121-.178714 1.984375-.533203.428129-.355393.642578-.898369.642578-1.630859 0-.262123-.045097-.491184-.117187-.701172z" fill="#fff" opacity=".2"/></svg>

<?xml version="1.0" encoding="UTF-8" standalone="no"?>
<svg
   xmlns:dc="http://purl.org/dc/elements/1.1/"
   xmlns:cc="http://creativecommons.org/ns#"
   xmlns:rdf="http://www.w3.org/1999/02/22-rdf-syntax-ns#"
   xmlns:svg="http://www.w3.org/2000/svg"
   xmlns="http://www.w3.org/2000/svg"
   xmlns:xlink="http://www.w3.org/1999/xlink"
   xmlns:sodipodi="http://sodipodi.sourceforge.net/DTD/sodipodi-0.dtd"
   xmlns:inkscape="http://www.inkscape.org/namespaces/inkscape"
   height="32"
   width="32"
   version="1.1"
   id="svg24"
   sodipodi:docname="insertfixedtext.svg"
   inkscape:version="0.92.4 (unknown)"
   inkscape:export-filename="/home/rizmut/Dokumen/Rizmut/Github/libreoffice-style-elementary/images_elementary/cmd/32/insertfixedtext.png"
   inkscape:export-xdpi="96"
   inkscape:export-ydpi="96">
  <metadata
     id="metadata30">
    <rdf:RDF>
      <cc:Work
         rdf:about="">
        <dc:format>image/svg+xml</dc:format>
        <dc:type
           rdf:resource="http://purl.org/dc/dcmitype/StillImage" />
      </cc:Work>
    </rdf:RDF>
  </metadata>
  <defs
     id="defs28">
    <radialGradient
       inkscape:collect="always"
       xlink:href="#a"
       id="radialGradient840"
       cx="-4.5032139"
       cy="6.1429329"
       fx="-4.5032139"
       fy="6.1429329"
       r="4.7189999"
       gradientTransform="matrix(0.15637421,3.2168892,-2.4630764,0.11177097,11.331486,18.121174)"
       gradientUnits="userSpaceOnUse" />
    <radialGradient
       inkscape:collect="always"
       xlink:href="#a"
       id="radialGradient842"
       cx="-15.353959"
       cy="4.6584811"
       fx="-15.353959"
       fy="4.6584811"
       r="6.0374846"
       gradientTransform="matrix(0.13451573,2.4473345,-2.2206636,0.11394217,-2.9436907,41.443873)"
       gradientUnits="userSpaceOnUse" />
  </defs>
  <sodipodi:namedview
     pagecolor="#ffffff"
     bordercolor="#666666"
     borderopacity="1"
     objecttolerance="10"
     gridtolerance="10"
     guidetolerance="10"
     inkscape:pageopacity="0"
     inkscape:pageshadow="2"
     inkscape:window-width="1366"
     inkscape:window-height="714"
     id="namedview26"
     showgrid="false"
     inkscape:zoom="10.429825"
     inkscape:cx="6.3317071"
     inkscape:cy="20.63675"
     inkscape:window-x="0"
     inkscape:window-y="28"
     inkscape:window-maximized="1"
     inkscape:current-layer="svg24" />
  <linearGradient
     id="a">
    <stop
       offset="0"
       stop-color="#737373"
       id="stop2" />
    <stop
       offset=".262"
       stop-color="#636363"
       id="stop4" />
    <stop
       offset=".705"
       stop-color="#4b4b4b"
       id="stop6" />
    <stop
       offset="1"
       stop-color="#3f3f3f"
       id="stop8" />
  </linearGradient>
  <linearGradient
     id="b"
     gradientUnits="userSpaceOnUse"
     x1="-4.327738"
     x2="-2.517843"
     xlink:href="#a"
     y1="5.647408"
     y2="20.491594" />
  <linearGradient
     id="c"
     gradientUnits="userSpaceOnUse"
     x1="-13.328684"
     x2="-10.975629"
     xlink:href="#a"
     y1="5.713997"
     y2="21.38286" />
  <linearGradient
     id="d"
     gradientUnits="userSpaceOnUse"
     x1="-15.081"
     x2="-19.514"
     y1="11.726"
     y2="6.405">
    <stop
       offset="0"
       stop-color="#1f1f1f"
       id="stop13" />
    <stop
       offset="1"
       stop-color="#5c5c5c"
       id="stop15" />
  </linearGradient>
  <g
     style="stroke:#000;stroke-linecap:round;stroke-linejoin:round;stroke-opacity:.49;stroke-width:.75;fill:url(#d)"
     transform="matrix(1.3105967 0 0 1.3564633 30.15902 -.50563)"
     id="g22">
    <path
       d="m-12.265 17.678-.85-2.79h-4.272l-.85 2.79h-2.676l4.135-11.765h3.038l4.152 11.765zm-1.443-4.873q-1.178-3.79-1.33-4.288-.145-.497-.21-.785-.263 1.026-1.514 5.073z"
       fill="url(#c)"
       id="path18"
       style="fill-opacity:1;fill:url(#radialGradient842)" />
    <path
       d="m-8.122 5.96h3.647q2.493 0 3.615.714 1.13.706 1.13 2.252 0 1.05-.497 1.723-.49.673-1.307.81v.08q1.114.247 1.603.93.496.68.496 1.81 0 1.603-1.162 2.5-1.154.898-3.142.898h-4.384v-11.717zm2.485 4.64h1.443q1.01 0 1.458-.31.457-.314.457-1.035 0-.674-.496-.962-.49-.297-1.555-.297h-1.307zm0 1.973v3.053h1.62q1.025 0 1.514-.392.49-.393.49-1.203 0-1.457-2.085-1.457z"
       fill="url(#b)"
       id="path20"
       style="fill-opacity:1;fill:url(#radialGradient840)" />
  </g>
  <path
     style="fill:#ffffff;fill-opacity:1;stroke:none;stroke-width:0.99999958;stroke-linecap:round;stroke-linejoin:round;stroke-opacity:0.49000005;opacity:0.2"
     d="M 8.1699219 7.515625 L 2.75 23.474609 L 3.2597656 23.474609 L 8.1699219 9.015625 L 12.152344 9.015625 L 17.082031 23.474609 L 17.59375 23.474609 L 12.152344 7.515625 L 8.1699219 7.515625 z M 19.513672 7.578125 L 19.513672 9.078125 L 24.294922 9.078125 C 26.473133 9.078125 28.050923 9.4011985 29.03125 10.046875 C 29.843321 10.571996 30.302778 11.369207 30.447266 12.408203 C 30.486845 12.152875 30.513672 11.887778 30.513672 11.601562 C 30.513672 10.203501 30.018566 9.1853171 29.03125 8.546875 C 28.050923 7.9011985 26.473133 7.578125 24.294922 7.578125 L 19.513672 7.578125 z M 27.035156 12.841797 C 26.935526 13.096065 26.784065 13.302507 26.572266 13.453125 C 26.180834 13.733461 25.544578 13.873047 24.662109 13.873047 L 22.771484 13.873047 L 22.771484 15.373047 L 24.662109 15.373047 C 25.544578 15.373047 26.180834 15.233461 26.572266 14.953125 C 26.971561 14.669172 27.171875 14.200835 27.171875 13.548828 C 27.171875 13.276338 27.121848 13.044469 27.035156 12.841797 z M 29.585938 15.763672 C 29.197171 16.174711 28.721083 16.437724 28.148438 16.537109 L 28.148438 16.646484 C 29.121774 16.869848 29.822745 17.29056 30.25 17.908203 C 30.566271 18.356974 30.764054 18.916561 30.849609 19.582031 C 30.879861 19.350944 30.900391 19.113402 30.900391 18.863281 C 30.900391 17.841413 30.683371 17.023133 30.25 16.408203 C 30.077195 16.158394 29.848204 15.949024 29.585938 15.763672 z M 8.6328125 16.863281 C 8.4735779 17.400861 8.3749854 17.748617 8.1914062 18.363281 L 12.193359 18.363281 C 11.927928 17.479415 11.949864 17.549149 11.744141 16.863281 L 8.6328125 16.863281 z M 27.404297 19.326172 C 27.300567 19.666263 27.13119 19.94878 26.878906 20.158203 C 26.451652 20.512692 25.790106 20.691406 24.894531 20.691406 L 22.771484 20.691406 L 22.771484 22.191406 L 24.894531 22.191406 C 25.790106 22.191406 26.451652 22.012692 26.878906 21.658203 C 27.307035 21.30281 27.521484 20.759834 27.521484 20.027344 C 27.521484 19.765221 27.476387 19.53616 27.404297 19.326172 z "
     id="path844" />
</svg>
